lib/healthicons/icons/solid/symbols/question.svg

<svg fill="none" height="48" viewBox="0 0 48 48" width="48" xmlns="http://www.w3.org/2000/svg"><path d="m25.8009 27.8689c-.466.0947-.8008.5045-.8008.98v2.1511c0 .8284-.6716 1.5-1.5 1.5-.8285 0-1.5-.6716-1.5-1.5v-4.322c0-.7879.6095-1.4415 1.3954-1.4964 1.7774-.1241 4.3925-.7288 6.5143-2.0828 2.0712-1.3217 3.5902-3.2851 3.5902-6.2539 0-2.8604-1.0611-4.8428-2.6018-6.1575-1.5787-1.34713-3.7745-2.08494-6.1319-2.17735-4.8817-.19137-9.4312 2.30975-10.3024 6.20385-.1809.8084-.9829 1.3172-1.7913 1.1363-.8085-.1809-1.3172-.9829-1.1364-1.7913.6655-2.9742 2.587-5.15114 5.0734-6.5762 2.4996-1.43266 5.5318-2.07786 8.2742-1.97035 2.8685.11245 5.7598 1.01401 7.9618 2.89302 2.2402 1.91163 3.6544 4.74343 3.6544 8.43953 0 4.2381-2.2706 7.0562-4.9764 8.7829-1.8314 1.1687-3.9 1.8707-5.7227 2.2411zm-4.8009 12.1311c0-1.6568 1.3432-3 3-3 1.6569 0 3 1.3432 3 3 0 1.6569-1.3431 3-3 3-1.6568 0-3-1.3431-3-3z" fill="#333" stroke="#333" stroke-linecap="round" stroke-linejoin="round" stroke-width="2"/></svg>

<svg width="48" height="48" viewBox="0 0 48 48" fill="none" xmlns="http://www.w3.org/2000/svg">
<path d="M25.8009 27.8689C25.3349 27.9636 25.0001 28.3734 25.0001 28.8489V31C25.0001 31.8284 24.3285 32.5 23.5001 32.5C22.6716 32.5 22.0001 31.8284 22.0001 31V26.678C22.0001 25.8901 22.6096 25.2365 23.3955 25.1816C25.1729 25.0575 27.788 24.4528 29.9098 23.0988C31.981 21.7771 33.5 19.8137 33.5 16.8449C33.5 13.9845 32.4389 12.0021 30.8982 10.6874C29.3195 9.34027 27.1237 8.60246 24.7663 8.51005C19.8846 8.31868 15.3351 10.8198 14.4639 14.7139C14.283 15.5223 13.481 16.0311 12.6726 15.8502C11.8641 15.6693 11.3554 14.8673 11.5362 14.0589C12.2017 11.0847 14.1232 8.90776 16.6096 7.4827C19.1092 6.05004 22.1414 5.40484 24.8838 5.51235C27.7523 5.6248 30.6436 6.52636 32.8456 8.40537C35.0858 10.317 36.5 13.1488 36.5 16.8449C36.5 21.083 34.2294 23.9011 31.5236 25.6278C29.6922 26.7965 27.6236 27.4985 25.8009 27.8689ZM21 40C21 38.3432 22.3432 37 24 37C25.6569 37 27 38.3432 27 40C27 41.6569 25.6569 43 24 43C22.3432 43 21 41.6569 21 40Z" fill="#333333" stroke="#333333" stroke-width="2" stroke-linecap="round" stroke-linejoin="round"/>
</svg>
